SVG/112-stage-profile.svg

<?xml version="1.0" encoding="UTF-8" standalone="no"?>
<svg width="14px" height="14px" viewBox="0 0 14 14" version="1.1" xmlns="http://www.w3.org/2000/svg" xmlns:xlink="http://www.w3.org/1999/xlink">
    <!-- Generator: Sketch 3.8.2 (29753) - http://www.bohemiancoding.com/sketch -->
    <title>112-stage-profile</title>
    <desc>Created with Sketch.</desc>
    <defs></defs>
    <g id="Page-1" stroke="none" stroke-width="1" fill="none" fill-rule="evenodd">
        <g id="112-stage-profile" fill="#000000">
            <g id="Layer_2">
                <g id="Icons">
                    <path d="M1,12.9 C1.64437717,10.1838242 4.1097262,8.29511608 6.9,8.38 C8.39931943,8.35893698 9.85562695,8.88107651 11,9.85 L11.64,9.21 C10.7055888,8.38706567 9.56482022,7.83396576 8.34,7.61 L8.17,7.61 L8.34,7.54 C10.0744473,6.87050432 11.0852157,5.05972745 10.7447082,3.2320003 C10.4042007,1.40427315 8.80917506,0.078958484 6.95,0.078958484 C5.09082494,0.078958484 3.49579935,1.40427315 3.15529183,3.2320003 C2.81478431,5.05972745 3.8255527,6.87050432 5.56,7.54 L5.72,7.61 L5.55,7.61 C2.44241958,8.09620734 0.115394262,10.7167314 -7.29416527e-16,13.86 L8.2,13.86 L8.34,12.96 L1,12.96 L1,12.9 Z M3.94,3.9 C3.94,2.24314575 5.28314575,0.9 6.94,0.9 C8.59685425,0.9 9.94,2.24314575 9.94,3.9 C9.94,5.55685425 8.59685425,6.9 6.94,6.9 C6.14261489,6.90000443 5.37803376,6.58256156 4.81513628,6.01778776 C4.2522388,5.45301396 3.93734205,4.68738068 3.94,3.89 L3.94,3.9 Z" id="Shape"></path>
                    <path d="M12.66,12.38 C12.66,12.55 12.75,12.72 12.79,12.9 L12.79,13 L12.07,13 L11.17,13.9 L13.78,13.9 C13.773645,13.1528991 13.6278114,12.4135567 13.35,11.72 L12.66,12.38 Z" id="Shape"></path>
                    <polygon id="Shape" points="12.32 9.8 9.61 12.46 9.41 13.42 10.38 13.23 13.08 10.56"></polygon>
                    <rect id="Rectangle-path" transform="translate(13.243854, 9.599667) rotate(-45.000000) translate(-13.243854, -9.599667) " x="12.9138544" y="9.04466685" width="0.66" height="1.11"></rect>
                </g>
            </g>
        </g>
    </g>
</svg>

<svg xmlns="http://www.w3.org/2000/svg" viewBox="0 0 13.86 13.86"><title>Asset 17</title><g id="Layer_2" data-name="Layer 2"><g id="Icons"><path d="M1,12.9A5.88,5.88,0,0,1,6.9,8.38,6.21,6.21,0,0,1,11,9.85l.64-.64a6.86,6.86,0,0,0-3.3-1.6l-.17,0,.17-.07a3.86,3.86,0,1,0-2.78,0l.16.07-.17,0A6.57,6.57,0,0,0,0,13.86H8.2l.14-.9H1Zm2.94-9a3,3,0,1,1,3,3A3,3,0,0,1,3.94,3.89Z"/><path d="M12.66,12.38c0,.17.09.34.13.52V13h-.72l-.9.9h2.61a6,6,0,0,0-.43-2.18Z"/><polygon points="12.32 9.8 9.61 12.46 9.41 13.42 10.38 13.23 13.08 10.56 12.32 9.8"/><rect x="12.91" y="9.05" width="0.66" height="1.11" transform="translate(-2.91 12.17) rotate(-45)"/></g></g></svg>
